src/assets/icons/eject.svg

<svg width="14" height="14" viewBox="0 0 14 14" fill="none" xmlns="http://www.w3.org/2000/svg">
<g id="eject">
<g clip-path="url(#clip0_156_4568)">
<path id="Vector" fill-rule="evenodd" clip-rule="evenodd" d="M7.479 0.198412C7.21445 -0.0661372 6.78553 -0.0661372 6.52098 0.198412L0.198401 6.52099C0.00466025 6.71473 -0.0532969 7.0061 0.0515548 7.25924C0.156406 7.51237 0.403418 7.67742 0.677409 7.67742H13.3226C13.5966 7.67742 13.8436 7.51237 13.9484 7.25924C14.0533 7.0061 13.9953 6.71473 13.8016 6.52099L7.479 0.198412ZM6.99999 1.63543L11.6871 6.32258H2.31284L6.99999 1.63543ZM1.35483 10.6129C1.35483 10.4882 1.45592 10.3871 1.58063 10.3871H12.4193C12.5441 10.3871 12.6452 10.4882 12.6452 10.6129V12.4194C12.6452 12.5441 12.5441 12.6452 12.4193 12.6452H1.58063C1.45592 12.6452 1.35483 12.5441 1.35483 12.4194V10.6129ZM1.58063 9.03226C0.707668 9.03226 -1.07038e-05 9.73994 -1.07038e-05 10.6129V12.4194C-1.07038e-05 13.2923 0.707668 14 1.58063 14H12.4193C13.2923 14 14 13.2923 14 12.4194V10.6129C14 9.73994 13.2923 9.03226 12.4193 9.03226H1.58063Z" fill="black"/>
</g>
</g>
<defs>
<clipPath id="clip0_156_4568">
<rect width="14" height="14" fill="white"/>
</clipPath>
</defs>
</svg>

<svg xmlns="http://www.w3.org/2000/svg" fill="none" viewBox="0 0 14 14"><g clip-path="url(#a)"><path fill="#000" fill-rule="evenodd" d="M7.479.198a.677.677 0 0 0-.958 0L.198 6.521a.677.677 0 0 0 .48 1.156h12.645a.677.677 0 0 0 .479-1.156zM7 1.635l4.687 4.688H2.313zm-5.645 8.978c0-.125.1-.226.226-.226h10.838c.125 0 .226.101.226.226v1.806a.226.226 0 0 1-.226.226H1.581a.226.226 0 0 1-.226-.226zm.226-1.58A1.58 1.58 0 0 0 0 10.612v1.806C0 13.292.708 14 1.58 14h10.84A1.58 1.58 0 0 0 14 12.42v-1.807a1.58 1.58 0 0 0-1.58-1.58z" clip-rule="evenodd"/></g><defs><clipPath id="a"><path fill="#fff" d="M0 0h14v14H0z"/></clipPath></defs></svg>
